X: 1
T: The Humours Of Whiskey
R: slip jig
M: 9/8
L: 1/8
K: Emin
B2A BEE BEE|B2A BGE FED|B2A BEE BEE|DFG A2G FED|
B2A Bee ~B3|B2A Beg fed|B2A BEE BEE|DFG A2G FED|:
G2A B2A BcA|~G3 B2d eAA|G2A B2A B2d|eAA A2G FED:|


Tune 1023	Setting 14246

